[A]
T4@9V15,8
L3R5RO3FO4D-4C1O3B-4A-1B-5RB-O4D-4E-1D-5
L3O3A-B-RB-O4E-E-FD-5O3B-RB-O4E-4E-1E-
L3O4F8RD-O3B-7RR7
L3R7O5D-CO4B-A-B-5RB-O5D-E-D-CO4
L3O4B-5R5O5E-E-FD-5O4B-RB-O5A-E-D-
L3O5F6R5D-4C1O4B-1A-4B-5R5O5D-E-D-C
L3O4B-5RB-O5E-E-FD-O4B-5R5O5E-D-E-E-
L9O5F
L3R5O4B-O5D-F5E-D-E-F5FE-D-CD-5O4B-RO5FE-D-CD-5O4B-5A-B-O5D-6
L3R5O4B-O5D-F5E-D-E-F5FA-FE-F5F8RA8AB-5R
L3O4B-O5D-F5E-D-E-F5FE-D-CD-5O4B-RO5FE-D-CD-5O4B-5A-B-O5D-6
L3R5O4B-O5D-F5E-D-E-F5FA-FE-F5F8RA8AB-5R
L3O4B-O5D-F5E-D-E-F5FE-D-CD-5O4B-RO5FE-D-CD-5O4B-5A-B-O5D-6
L3R5O4B-O5D-F5E-D-E-F5FA-FE-F5F8RA9B-9

[B]
T4@6V13,8
L3O2B-O3FO2B-O3E-O2B-O3E-O2B-O3E-O2GO3FO2GO3E-O2GO3E-O2GO3E-
L3O2G-O3FO2G-O3E-O2G-O3E-O2G-O3E-O2A-O3FO2A-O3E-O2A-O3E-O2A-O3E-
L3O2GO3FO2GO3E-O2GO3E-O2GO3E-O2A-O3FO2A-O3E-O2A-O3E-O2AO3F
L3O2B-O3FO2B-O3E-O2B-O3E-O2B-O3E-O2GO3FO2GO3E-O2GO3E-O2GO3E-
L3O2G-O3FO2G-O3E-O2G-O3E-O2G-O3E-O2A-O3FO2A-O3E-O2A-O3E-O2AO3E-
L3O2B-O3FO2B-O3E-O2B-O3E-O2B-O3E-O2GO3FO2GO3E-O2GO3E-O2GO3E-
L3O2G-O3FO2G-O3E-O2G-O3E-O2G-O3E-O2A-O3FO2A-O3E-O2A-O3E-O2A-O3E-
L3O3A-A-A-A-A-A-AA
L3O2B-O3FO2B-O3FO2AO3E-O2AO3E-O2A-O3D-O2A-O3D-O2GO3E-O2GO3E-O2B-O3FO2B-O3E-O2GO3E-O2GO3E-O2B-O3FO2B-O3FO2B-O3FO2AO3A
L3O3B-7O2AO3E-O2AO3E-O2A-O3D-O2A-O3E-O2GO3E-O2GO3A5AAAAAAAAAAAAAE-F7R
L3O2AO3E-O2AO3E-O2A-O3D-O2A-O3D-O2GO3E-O2GO3E-O2B-O3FO2B-O3E-O2GO3E-O2GO3E-O2B-O3FO2B-O3FO2B-O3FO2AO3A
L3O3B-7O2AO3E-O2AO3E-O2A-O3D-O2A-O3E-O2GO3E-O2GO3A5AAAAAAAAAAAAAE-F7R
L3O2AO3E-O2AO3E-O2A-O3D-O2A-O3D-O2GO3E-O2GO3E-O2B-O3FO2B-O3E-O2GO3E-O2GO3E-O2B-O3FO2B-O3FO2B-O3FAO2A
L3O3B-7O2AO3E-O2AO3E-O2A-O3D-O2A-O3E-O2GO3E-O2GO3E-O2FO3CFCO4CO3FO4FO3FO4CO3FAB-AFE-D-O2B-9

[C]
T4@6V13,8
L9RR
L9RR
L9RR
L9RR
L9RR
L9RR
L9RR
L3O3CCCCCCCC
L9RRRR
L3O3F7R7R7R5RO3F5FFFFFFFCCCCCCO2AB-7R
L9R7RRR
L3O3F7R7R7R5RO3F5FFFFFFFCCCCCCO2AB-7R
L9R7RRR
L3O3F7R7R9R9R7E-CO2AD-O1B-9
